vms/client/nx_vms_client_desktop/external_resources/skin/48x48/Outline/lock.svg

<svg width="48" height="48" viewBox="0 0 48 48" fill="none" xmlns="http://www.w3.org/2000/svg">
<path fill-rule="evenodd" clip-rule="evenodd" d="M30 16V20H18V16C18 12.6863 20.6863 10 24 10C27.3137 10 30 12.6863 30 16ZM14 20V16C14 10.4772 18.4772 6 24 6C29.5228 6 34 10.4772 34 16V20H36C37.1046 20 38 20.8954 38 22V40C38 41.1046 37.1046 42 36 42H12C10.8954 42 10 41.1046 10 40V22C10 20.8954 10.8954 20 12 20H14ZM34 24H30H18H14V38H34V24Z" class="Primary" fill="#EF5350"/>
</svg>

<svg xmlns="http://www.w3.org/2000/svg" width="48" height="48" fill="none" viewBox="0 0 48 48">
  <g class="48x48/Outline/lock">
    <path fill="#EF5350" fill-rule="evenodd" d="M30 16v4H18v-4a6 6 0 0 1 12 0Zm-16 4v-4c0-5.523 4.477-10 10-10s10 4.477 10 10v4h2a2 2 0 0 1 2 2v18a2 2 0 0 1-2 2H12a2 2 0 0 1-2-2V22a2 2 0 0 1 2-2h2Zm20 4H14v14h20V24Z" class="Primary" clip-rule="evenodd"/>
  </g>
</svg>
